public/avatar/hat/244.svg

<svg xmlns:xlink="http://www.w3.org/1999/xlink" height="92.9" width="100.7" xmlns="http://www.w3.org/2000/svg"><use height="20.1" transform="translate(18.65 46.2)" width="49.95" xlink:href="#a"/><defs><g id="a" fill-rule="evenodd"><path d="M25.7 3.5q.25.15.15.45V4q-.15.75-.85 1.3.2.5 0 1.25l-.2.65-.3.3-.4-.1-.1-.15q-5.7-5.05-14.7.7L8.95 8l-.25-.2q-.55-.9-.55-2.25l.1-.3.3-.1 1.65-.9q8.7-5.2 15.5-.75" transform="translate(20 3.55)"/><path d="M8.55 5.55q.85-.05 5.7-2.7 5.6-1.95 10.7 1.2l-.85.85.1 1.4q-2.9-1.9-4.5-2.2-4.6-.8-10.75 3.15l-.4-1.7" fill="#600" transform="translate(20 3.55)"/><path d="m28.75 9.15.15-.1h.5l.25.4.05.8q0 1-.35 1.5.6.7.6 1.7v.05q0 .4-.3.45-9.25 3.35-17.7-5.1L10.3 7.4q-.2-.05-.3-.25-.15-.15-.05-.4.5-1.7 1.25-2.45.15-.15.4-.15.2 0 .35.15 8.9 9.3 16.8 4.85" transform="translate(20 3.55)"/><path d="M10.4 6.9q.25-1.15.95-1.85 5.95 6.25 11.55 6.6 1.9.1 5.8-1.3.1 1.15-.5 1.6l.7 1.2q-6.8 2.2-12.65-1.55-4.9-4.4-5.85-4.7" fill="#a30000" transform="translate(20 3.55)"/><path d="m11.1 5.3.25-.25q5.95 6.25 11.55 6.6 1.9.1 5.8-1.3l-.15 1.05q-3.65 1.85-8.75.35l.8.55q-6.1-1.15-9.5-7" fill="#600" transform="translate(20 3.55)"/><path d="m-4.8-3.35 2.3-.15q4.55-.4 6.1 1.65 4.1-1.3 8.55 3.15 2.2 2.2 3.25 2.45l.4.4v.1l-.2.4-1.5.45 1.1 2.5q1.15 3.8 4.25 4.9l.35.35v.1l-.2.4q-.8.65-2.25.55L16 13.55q.4.9 1.65 2.05l.15.3v.05l-.2.35-1.75.25q-1.35-.15-1.6-.7l-2.65-6.9Q9.95 6.4 7.1 6.15l-4.85.05-7.75-.5q-3.85.05-5.1 1.55-2.8 3.45-4.2 8.8-3.8.6-4.25-1.5 2.6-.95 3.45-2.95l-4.1-.2-.3-.45v-.1q0-.4.4-.4 2.95-.35 5.95-3.85-2.7-.5-3.6-2.55V3.9l.1-.35.55-.15 3.3.15q.85-.45 2.25-2.1 2.95-3.5 6.3-3.75l-.3-.1-.3-.4v-.1l.55-.45" fill="#1c0000" transform="translate(20 3.55)"/><path d="M.3-2.65q1.9.25 2.95 1.8Q6.95-2.2 9.9.45l2.15 2.2q1.2 1.2 2.15 1.45l-1.9.3q1.05.8 2.1 4 1 3.05 3.6 4.55-1.35.35-3.55-1.35-.1 1.35 2 4.1-1 .1-1.35-.3l-2.5-7.6Q8.8 4.75-1 5q-8.7.2-10.3 1.6-3.45 3.75-4.4 8.8-1.5.35-2.25-.55 1.25-.65 2.45-2.2 1.25-1.55.9-2.2l-2.85.35Q-13.7 8.7-11.9 6q-2.25-.2-3.65-1.25 2.2.1 3.5-.85l2-2.25q2.65-3.35 8-3.3l-1.65-1.1 4 .1" fill="#fc0" transform="translate(20 3.55)"/><path d="M-17.4 15.2q1.4-.95 2.2-2.35l.5-1.3.2.45-1.2 3.4-1.7-.2" fill="#ca7017" transform="translate(20 3.55)"/><path d="M-15.75 10.7q1.1-.4 2-1.4l1.5-1.55Q-13.55 9.6-14.5 12l-.2-.45q.25-.8.1-1.1l-1.15.25m7.95-7.2q0 1.1-.55 2.2l-2.65.7-1-.25.1-.15-2.55-.6q4.05-.15 6.65-1.9M2.85-.45Q1.3-1.95.2-2.25l-3.9-.5 4 .1q1.9.3 2.95 1.85Q6.95-2.15 9.9.45l2.15 2.2q1.2 1.2 2.15 1.45l-1.9.3q1.05.8 2.1 4 1 3.05 3.6 4.55-1.35.35-3.55-1.35-.1 1.35 2 4.1-.7.45-1.35-.3l-3.05-7.45q-.25-.7-.7-.95.6-3.95-3-6Q4.85-1 1.2.55l1.65-1" fill="#ca7017" transform="translate(20 3.55)"/><path d="M11.45 4.95 12.6 6.5q.8 1.4.55 2l-.65.45h-24.7q-.55-.1-.45-.55.15-1.15 1.05-2.35l.95-1.1.35-.1q21.3-.35 21.75.1" transform="translate(20 3.55)"/><path d="M10.9 5.8q1 .65 1.2 2.15L-11.45 8l1.35-2.25q20.55-.25 21 .05" fill="#a30000" transform="translate(20 3.55)"/><path d="M10.9 5.8q1 .65 1.2 2.15L-11.45 8l.25-.65q13.65 0 18.2.35l-12.75-2q16.3-.15 16.65.1" fill="#600" transform="translate(20 3.55)"/><path d="M10.25 2.75q1.25.3 2.15 1.55 1.05 1.45.8 3.3l-.45.4-.55-.35q-.1-.5-.95-1.35l-.5 2q-.2.35-.55.3-.35 0-.45-.4-.2-1.35-1.25-2.35v.05q0 1.65-.35 2.35l-.45.25-.5-.35-1.5-1.4L3.8 5.5q-1.25.95-1.35 2.55l-.2.4-.45.05Q.5 8.15.1 5.65q-1.3.9-2.4 2.65l-.35.2-.35-.05q-.8-.55-.8-2v-.2q-1.5.95-2.45 2.25-.15.2-.45.2l-.4-.35-.15-.9.05-.45-1.95 1.85-.55.1-.3-.45v-.05q0-.8.55-1.9l-2.8 2.05h-.55q-.3-.2-.2-.5.5-2.15 2.35-3.95l.05-.05Q-8.85 2.15.35 2.15l9.9.6" fill="#4f0000" transform="translate(20 3.55)"/><path d="M11.7 3.75q.95 1.3.7 2.95-.15-.7-1.2-1.55-1-.85-1.1-.6.45.55.2 2.6-.3-2-3.15-3.3.4.25.55 1.5.15 1.25-.1 1.95 0-.45-1.75-1.7-1.7-1.2-2.1-1.2-.35.05-1.15 1.1-.8 1.1-.85 1.8-.5-.15-.8-1.25Q.65 5 .75 4.2q-2 1.05-3.35 3.1-.45-1.55-.05-2.6-2.15.75-3.6 2.65Q-6.6 6.3-6 5.4q-.55-.2-3 2.25-.1-1.7 1.25-2.85-1.75.6-3.6 1.85.45-1.9 1.35-3.1Q-8.5 1.75.4 1.8l9.5.55q1.05.25 1.8 1.4" fill="#fc0" transform="translate(20 3.55)"/><path d="M.2 2.5q.75 1.15.55 1.7-2 1.05-3.35 3.1l-.05-.1q.25-1.15 1.3-2.5L.2 2.5m1.6 4.55Q1.65 5.7 3.2 2.5l1.35 2.3-.8-.4q-.35.05-1.05.95-.7.95-.9 1.7M6.2 2.5q1.55.55 2.2 2.05l-1.25-.7q.4.25.55 1.5.15 1.25-.1 1.95l-.15-.25Q6.2 4 6.2 2.5m3-.35q1.7.2 2.6 1.7.85 1.35.6 2.85-.45-1.1-2.3-2.15.4.5.2 2.6-.1-2.8-1.1-5m-11 1.35-.95 1.25q-2.2.9-3.5 2.6Q-4.5 3.5-1.8 3.5m-4 0q0 1-.3 1.9-.6-.05-2.9 2.25l.05-.5L-5.8 3.5m-5.35 3.05q1.9-2.3 4.25-2.95l-.9 1.25q-1.75.6-3.35 1.7" fill="#ca7017" transform="translate(20 3.55)"/><path d="M.2 1.45q0-.2.15-.3L.4 2.2 0 1.65l-.7.7-.7.6-.15-1.2-1.3.5-1.75.85.1-1.5-.7.4-1.2.85q.25-.7.15-1.05l-2.25.9.75-1.1-1.5.5L-8.1.7h.05l-.15.7 1-.1-.3.65 1.25-.6.5-.15q.3.3-.1.65l1.6-.8q.25.05.25.35v.9l3-1.1.05.85Q.1.75.2 1.45" fill="#fff" transform="translate(20 3.55)"/></g></defs></svg>

<?xml version="1.0" encoding="UTF-8" standalone="no"?>
<svg xmlns:xlink="http://www.w3.org/1999/xlink" height="92.9px" width="100.7px" xmlns="http://www.w3.org/2000/svg">
  <g transform="matrix(1.0, 0.0, 0.0, 1.0, 38.65, 49.75)">
    <use height="20.1" transform="matrix(1.0, 0.0, 0.0, 1.0, -20.0, -3.55)" width="49.95" xlink:href="#shape0"/>
  </g>
  <defs>
    <g id="shape0" transform="matrix(1.0, 0.0, 0.0, 1.0, 20.0, 3.55)">
      <path d="M25.7 3.5 Q25.95 3.65 25.85 3.95 L25.85 4.0 Q25.7 4.75 25.0 5.3 25.2 5.8 25.0 6.55 L24.8 7.2 24.5 7.5 24.1 7.4 24.0 7.25 Q18.3 2.2 9.3 7.95 L8.95 8.0 8.7 7.8 Q8.15 6.9 8.15 5.55 L8.25 5.25 8.55 5.15 10.2 4.25 Q18.9 -0.95 25.7 3.5" fill="#000000" fill-rule="evenodd" stroke="none"/>
      <path d="M8.55 5.55 Q9.4 5.5 14.25 2.85 19.85 0.9 24.95 4.05 L24.1 4.9 24.2 6.3 Q21.3 4.4 19.7 4.1 15.1 3.3 8.95 7.25 L8.55 5.55" fill="#660000" fill-rule="evenodd" stroke="none"/>
      <path d="M28.75 9.15 L28.9 9.05 29.4 9.05 29.65 9.45 29.7 10.25 Q29.7 11.25 29.35 11.75 29.95 12.45 29.95 13.45 L29.95 13.5 Q29.95 13.9 29.65 13.95 20.4 17.3 11.95 8.85 L10.3 7.4 Q10.1 7.35 10.0 7.15 9.85 7.0 9.95 6.75 10.45 5.05 11.2 4.3 11.35 4.15 11.6 4.15 11.8 4.15 11.95 4.3 20.85 13.6 28.75 9.15" fill="#000000" fill-rule="evenodd" stroke="none"/>
      <path d="M10.4 6.9 Q10.65 5.75 11.35 5.05 17.3 11.3 22.9 11.65 24.8 11.75 28.7 10.35 28.8 11.5 28.2 11.95 L28.9 13.15 Q22.1 15.35 16.25 11.6 11.35 7.2 10.4 6.9" fill="#a30000" fill-rule="evenodd" stroke="none"/>
      <path d="M11.1 5.3 L11.35 5.05 Q17.3 11.3 22.9 11.65 24.8 11.75 28.7 10.35 L28.55 11.4 Q24.9 13.25 19.8 11.75 L20.6 12.3 Q14.5 11.15 11.1 5.3" fill="#660000" fill-rule="evenodd" stroke="none"/>
      <path d="M-4.8 -3.35 L-2.5 -3.5 Q2.05 -3.9 3.6 -1.85 7.7 -3.15 12.15 1.3 14.35 3.5 15.4 3.75 L15.8 4.15 15.8 4.25 15.6 4.65 14.1 5.1 15.2 7.6 Q16.35 11.4 19.45 12.5 L19.8 12.85 19.8 12.95 19.6 13.35 Q18.8 14.0 17.35 13.9 L16.0 13.55 Q16.4 14.45 17.65 15.6 L17.8 15.9 17.8 15.95 17.6 16.3 15.85 16.55 Q14.5 16.4 14.25 15.85 L11.6 8.95 Q9.95 6.4 7.1 6.15 L2.25 6.2 -5.5 5.7 Q-9.35 5.75 -10.6 7.25 -13.4 10.7 -14.8 16.05 -18.6 16.65 -19.05 14.55 -16.45 13.6 -15.6 11.6 L-19.7 11.4 -20.0 10.95 -20.0 10.85 Q-20.0 10.45 -19.6 10.45 -16.65 10.1 -13.65 6.6 -16.35 6.1 -17.25 4.05 L-17.25 3.9 -17.15 3.55 -16.6 3.4 -13.3 3.55 Q-12.45 3.1 -11.05 1.45 -8.1 -2.05 -4.75 -2.3 L-5.05 -2.4 -5.35 -2.8 -5.35 -2.9 -4.8 -3.35" fill="#1c0000" fill-rule="evenodd" stroke="none"/>
      <path d="M0.3 -2.65 Q2.2 -2.4 3.25 -0.85 6.95 -2.2 9.9 0.45 L12.05 2.65 Q13.25 3.85 14.2 4.1 L12.3 4.4 Q13.35 5.2 14.4 8.4 15.4 11.45 18.0 12.95 16.65 13.3 14.45 11.6 14.35 12.95 16.45 15.7 15.45 15.8 15.1 15.4 L12.6 7.8 Q8.8 4.75 -1.0 5.0 -9.7 5.2 -11.3 6.6 -14.75 10.35 -15.7 15.4 -17.2 15.75 -17.95 14.85 -16.7 14.2 -15.5 12.65 -14.25 11.1 -14.6 10.45 L-17.45 10.8 Q-13.7 8.7 -11.9 6.0 -14.15 5.8 -15.55 4.75 -13.35 4.85 -12.05 3.9 L-10.05 1.65 Q-7.4 -1.7 -2.05 -1.65 L-3.7 -2.75 0.3 -2.65" fill="#ffcc00" fill-rule="evenodd" stroke="none"/>
      <path d="M-17.4 15.2 Q-16.0 14.25 -15.2 12.85 L-14.7 11.55 -14.5 12.0 -15.7 15.4 -17.4 15.2" fill="#ca7017" fill-rule="evenodd" stroke="none"/>
      <path d="M-15.75 10.7 Q-14.65 10.3 -13.75 9.3 L-12.25 7.75 Q-13.55 9.6 -14.5 12.0 L-14.7 11.55 Q-14.45 10.75 -14.6 10.45 L-15.75 10.7" fill="#ca7017" fill-rule="evenodd" stroke="none"/>
      <path d="M-7.8 3.5 Q-7.8 4.6 -8.35 5.7 L-11.0 6.4 -12.0 6.15 -11.9 6.0 -14.45 5.4 Q-10.4 5.25 -7.8 3.5" fill="#ca7017" fill-rule="evenodd" stroke="none"/>
      <path d="M2.85 -0.45 Q1.3 -1.95 0.2 -2.25 L-3.7 -2.75 0.3 -2.65 Q2.2 -2.35 3.25 -0.8 6.95 -2.15 9.9 0.45 L12.05 2.65 Q13.25 3.85 14.2 4.1 L12.3 4.4 Q13.35 5.2 14.4 8.4 15.4 11.45 18.0 12.95 16.65 13.3 14.45 11.6 14.35 12.95 16.45 15.7 15.75 16.15 15.1 15.4 L12.05 7.95 Q11.8 7.25 11.35 7.0 11.95 3.05 8.35 1.0 4.85 -1.0 1.2 0.55 L2.85 -0.45" fill="#ca7017" fill-rule="evenodd" stroke="none"/>
      <path d="M11.45 4.95 L12.6 6.5 Q13.4 7.9 13.15 8.5 L12.5 8.95 10.9 8.95 -12.2 8.95 Q-12.75 8.85 -12.65 8.4 -12.5 7.25 -11.6 6.05 L-10.65 4.95 -10.3 4.85 Q11.0 4.5 11.45 4.95" fill="#000000" fill-rule="evenodd" stroke="none"/>
      <path d="M10.9 5.8 Q11.9 6.45 12.1 7.95 L-11.45 8.0 -10.1 5.75 Q10.45 5.5 10.9 5.8" fill="#a30000" fill-rule="evenodd" stroke="none"/>
      <path d="M10.9 5.8 Q11.9 6.45 12.1 7.95 L-11.45 8.0 -11.2 7.35 Q2.45 7.35 7.0 7.7 L-5.75 5.7 Q10.55 5.55 10.9 5.8" fill="#660000" fill-rule="evenodd" stroke="none"/>
      <path d="M10.25 2.75 Q11.5 3.05 12.4 4.3 13.45 5.75 13.2 7.6 L12.75 8.0 12.2 7.65 Q12.1 7.15 11.25 6.3 L10.75 8.3 Q10.55 8.65 10.2 8.6 9.85 8.6 9.75 8.2 9.55 6.85 8.5 5.85 L8.5 5.9 Q8.5 7.55 8.15 8.25 L7.7 8.5 7.2 8.15 5.7 6.75 3.8 5.5 Q2.55 6.45 2.45 8.05 L2.25 8.45 1.8 8.5 Q0.5 8.15 0.1 5.65 -1.2 6.55 -2.3 8.3 L-2.65 8.5 -3.0 8.45 Q-3.8 7.9 -3.8 6.45 L-3.8 6.25 Q-5.3 7.2 -6.25 8.5 -6.4 8.7 -6.7 8.7 L-7.1 8.35 -7.25 7.45 -7.2 7.0 -9.15 8.85 -9.7 8.95 -10.0 8.5 -10.0 8.45 Q-10.0 7.65 -9.45 6.55 L-12.25 8.6 -12.8 8.6 Q-13.1 8.4 -13.0 8.1 -12.5 5.95 -10.65 4.15 L-10.6 4.1 Q-8.85 2.15 0.35 2.15 L10.25 2.75" fill="#4f0000" fill-rule="evenodd" stroke="none"/>
      <path d="M11.7 3.75 Q12.65 5.05 12.4 6.7 12.25 6.0 11.2 5.15 10.2 4.3 10.1 4.55 10.55 5.1 10.3 7.15 10.0 5.15 7.15 3.85 7.55 4.1 7.7 5.35 7.85 6.6 7.6 7.3 7.6 6.85 5.85 5.6 4.15 4.4 3.75 4.4 3.4 4.45 2.6 5.5 1.8 6.6 1.75 7.3 1.25 7.15 0.95 6.05 0.65 5.0 0.75 4.2 -1.25 5.25 -2.6 7.3 -3.05 5.75 -2.65 4.7 -4.8 5.45 -6.25 7.35 -6.6 6.3 -6.0 5.4 -6.55 5.2 -9.0 7.65 -9.1 5.95 -7.75 4.8 -9.5 5.4 -11.35 6.65 -10.9 4.75 -10.0 3.55 -8.5 1.75 0.4 1.8 L9.9 2.35 Q10.95 2.6 11.7 3.75" fill="#ffcc00" fill-rule="evenodd" stroke="none"/>
      <path d="M0.2 2.5 Q0.95 3.65 0.75 4.2 -1.25 5.25 -2.6 7.3 L-2.65 7.2 Q-2.4 6.05 -1.35 4.7 L0.2 2.5" fill="#ca7017" fill-rule="evenodd" stroke="none"/>
      <path d="M1.8 7.05 Q1.65 5.7 3.2 2.5 L4.55 4.8 3.75 4.4 Q3.4 4.45 2.7 5.35 2.0 6.3 1.8 7.05" fill="#ca7017" fill-rule="evenodd" stroke="none"/>
      <path d="M6.2 2.5 Q7.75 3.05 8.4 4.55 L7.15 3.85 Q7.55 4.1 7.7 5.35 7.85 6.6 7.6 7.3 L7.45 7.05 Q6.2 4.0 6.2 2.5" fill="#ca7017" fill-rule="evenodd" stroke="none"/>
      <path d="M9.2 2.15 Q10.9 2.35 11.8 3.85 12.65 5.2 12.4 6.7 11.95 5.6 10.1 4.55 10.5 5.05 10.3 7.15 10.2 4.35 9.2 2.15" fill="#ca7017" fill-rule="evenodd" stroke="none"/>
      <path d="M-1.8 3.5 L-2.75 4.75 Q-4.95 5.65 -6.25 7.35 -4.5 3.5 -1.8 3.5" fill="#ca7017" fill-rule="evenodd" stroke="none"/>
      <path d="M-5.8 3.5 Q-5.8 4.5 -6.1 5.4 -6.7 5.35 -9.0 7.65 L-8.95 7.15 -5.8 3.5" fill="#ca7017" fill-rule="evenodd" stroke="none"/>
      <path d="M-11.15 6.55 Q-9.25 4.25 -6.9 3.6 L-7.8 4.85 Q-9.55 5.45 -11.15 6.55" fill="#ca7017" fill-rule="evenodd" stroke="none"/>
      <path d="M0.2 1.45 Q0.2 1.25 0.35 1.15 L0.4 2.2 0.0 1.65 -0.7 2.35 -1.4 2.95 -1.55 1.75 -2.85 2.25 -4.6 3.1 -4.5 1.6 -5.2 2.0 -6.4 2.85 Q-6.15 2.15 -6.25 1.8 L-8.5 2.7 -7.75 1.6 -9.25 2.1 -8.1 0.7 -8.05 0.7 -8.2 1.4 -7.2 1.3 -7.5 1.95 -6.25 1.35 -5.75 1.2 Q-5.45 1.5 -5.85 1.85 L-4.25 1.05 Q-4.0 1.1 -4.0 1.4 L-4.0 2.3 -1.0 1.2 -0.95 2.05 Q0.1 0.75 0.2 1.45" fill="#ffffff" fill-rule="evenodd" stroke="none"/>
    </g>
  </defs>
</svg>
